X:1
T:Charming Molly
M:3/4
L:1/8
K:F
 DD DE| FG AF| GG GF| E3 z| EE EF| GA BG| AA A2| F3 z| GG GA| B^A B2|\
 AB AG| FG AF| A2 GE| E A2 G| FE D2| D2 z2|F-GA-F| GEF-G| AF GE|
M:2/4
 FG AB|G-F E2|
M:3/4
 F2- A2 B2| G2 G2|c-A|
M:2/4
B-A G2|
M:3/4
 F6| A2- c2 B2| G4 c2|
M:2/4
d-c =B2| c6| cA BG| AF FF| GF EC| F2- A2| B2 G2| G2c-A|B-A G2|
M:3/4
 F6|

